packages/tokens/icons/cloudCoveo/size24Px.svg

<svg viewBox="0 0 24 24" fill="none" xmlns="http://www.w3.org/2000/svg" width="1em" height="1em"><path d="M18.3333 15.5C20.4444 15.5 21.5 13.3182 21.5 11.6818C21.5 9.74921 20.1107 8.15196 18.308 7.89864C18.0609 5.42729 16.0399 3.5 13.5833 3.5C11.512 3.5 9.7504 4.87016 9.10068 6.78133C9.01228 6.77562 8.92313 6.77273 8.83333 6.77273C6.85498 6.77273 5.19442 8.17894 4.7364 10.077C3.47002 10.2773 2.5 11.4079 2.5 12.7727C2.5 14.279 3.68147 15.5 5.13889 15.5" stroke="currentColor" stroke-linecap="round" stroke-linejoin="round"/><path d="M15.549 12.4426C14.6884 11.5869 13.5859 11.1062 12.4545 11.0004C12.3191 10.9908 12.2417 11.1542 12.3385 11.2504L14.1468 13.0483C14.1565 13.0579 14.1468 13.0772 14.1275 13.0675C13.6053 12.6926 13.0154 12.4811 12.4061 12.4234C12.3094 12.4137 12.2611 12.5291 12.3288 12.5964L13.5666 13.8271C13.5763 13.8367 13.5666 13.8559 13.5472 13.8463C13.2088 13.6156 12.822 13.481 12.4255 13.4425C12.3578 13.4329 12.3191 13.5194 12.3675 13.5579L14.4659 15.6442C14.5143 15.6923 14.5916 15.6539 14.582 15.5866C14.5433 15.1924 14.4079 14.8078 14.1758 14.4713C14.1662 14.4617 14.1855 14.4424 14.1952 14.452L15.3846 15.6346C15.4523 15.7019 15.5684 15.6442 15.5587 15.5577C15.5103 14.9616 15.2976 14.3655 14.9204 13.8559C14.9108 13.8463 14.9301 13.8271 14.9398 13.8367L16.7482 15.6346C16.8449 15.7308 17.0092 15.6539 16.9996 15.5096C16.8932 14.3944 16.4097 13.2983 15.549 12.4426ZM8.45097 12.4426C9.31163 11.5869 10.4141 11.1062 11.5455 11.0004C11.6809 10.9908 11.7582 11.1542 11.6615 11.2504L9.85317 13.0483C9.84349 13.0579 9.85317 13.0772 9.8725 13.0675C10.3947 12.6926 10.9846 12.4811 11.5938 12.4234C11.6905 12.4137 11.7389 12.5291 11.6712 12.5964L10.4334 13.8271C10.4237 13.8367 10.4334 13.8559 10.4527 13.8463C10.7912 13.6156 11.178 13.481 11.5745 13.4425C11.6422 13.4329 11.6809 13.5194 11.6325 13.5579L9.53404 15.6539C9.4857 15.7019 9.40833 15.6635 9.418 15.5962C9.45668 15.202 9.59207 14.8174 9.82416 14.4809C9.83383 14.4713 9.81448 14.452 9.80481 14.4617L8.61536 15.6442C8.54767 15.7115 8.43162 15.6539 8.4413 15.5673C8.49931 14.9616 8.71206 14.3655 9.08921 13.8559C9.09888 13.8463 9.07953 13.8271 9.06987 13.8367L7.25184 15.6346C7.15513 15.7308 6.99074 15.6539 7.00041 15.5096C7.10678 14.3944 7.5903 13.2983 8.45097 12.4426ZM8.45097 19.5574C9.31163 20.4131 10.4141 20.8938 11.5455 20.9996C11.6809 21.0092 11.7582 20.8457 11.6615 20.7496L9.85317 18.9517C9.84349 18.9421 9.85317 18.9228 9.8725 18.9324C10.3947 19.3074 10.9846 19.5189 11.5938 19.5766C11.6905 19.5862 11.7389 19.4709 11.6712 19.4035L10.4334 18.1729C10.4237 18.1633 10.4334 18.144 10.4527 18.1537C10.7912 18.3844 11.178 18.519 11.5745 18.5575C11.6422 18.5671 11.6809 18.4806 11.6325 18.4421L9.53404 16.3461C9.4857 16.298 9.40833 16.3365 9.418 16.4038C9.45668 16.798 9.59207 17.1826 9.82416 17.5191C9.83383 17.5287 9.81448 17.5479 9.80481 17.5383L8.61536 16.3557C8.54767 16.2884 8.43162 16.3461 8.4413 16.4326C8.49931 17.0384 8.71206 17.6345 9.08921 18.144C9.09888 18.1537 9.07953 18.1729 9.06987 18.1633L7.25184 16.3653C7.15513 16.2692 6.99074 16.3461 7.00041 16.4903C7.10678 17.6056 7.5903 18.7017 8.45097 19.5574ZM15.549 19.5574C14.6884 20.4131 13.5859 20.8938 12.4545 20.9996C12.3191 21.0092 12.2417 20.8457 12.3385 20.7496L14.1468 18.9517C14.1565 18.9421 14.1468 18.9228 14.1275 18.9324C13.6053 19.3074 13.0154 19.5189 12.4061 19.5766C12.3094 19.5862 12.2611 19.4708 12.3288 19.4035L13.5666 18.1729C13.5763 18.1633 13.5666 18.144 13.5472 18.1537C13.2088 18.3844 12.822 18.519 12.4255 18.5575C12.3578 18.5671 12.3191 18.4806 12.3675 18.4421L14.4659 16.3557C14.5143 16.3077 14.5916 16.3461 14.582 16.4134C14.5433 16.8076 14.4079 17.1922 14.1758 17.5287C14.1662 17.5383 14.1855 17.5576 14.1952 17.5479L15.3846 16.3653C15.4523 16.298 15.5684 16.3557 15.5587 16.4423C15.5103 17.0384 15.2976 17.6345 14.9204 18.1537C14.9108 18.1633 14.9301 18.1825 14.9398 18.1729L16.7482 16.375C16.8449 16.2788 17.0092 16.3557 16.9996 16.4999C16.8932 17.6056 16.4097 18.7017 15.549 19.5574Z" fill="currentColor"/></svg>

<svg xmlns="http://www.w3.org/2000/svg" fill="none" viewBox="0 0 24 24" width="1em" height="1em"><path stroke="currentColor" stroke-linecap="round" stroke-linejoin="round" d="M18.333 15.5c2.111 0 3.167-2.182 3.167-3.818 0-1.933-1.39-3.53-3.192-3.783C18.061 5.427 16.04 3.5 13.583 3.5c-2.071 0-3.833 1.37-4.482 3.281a4.147 4.147 0 0 0-.268-.008c-1.978 0-3.639 1.406-4.097 3.304-1.266.2-2.236 1.33-2.236 2.696 0 1.506 1.181 2.727 2.639 2.727"/><path fill="currentColor" d="M15.549 12.443A5.04 5.04 0 0 0 12.454 11c-.135-.01-.212.154-.116.25l1.809 1.798c.01.01 0 .03-.02.02a3.498 3.498 0 0 0-1.72-.645c-.098-.01-.146.106-.078.173l1.238 1.231c.01.01 0 .029-.02.02a2.4 2.4 0 0 0-1.122-.404c-.067-.01-.106.076-.058.115l2.099 2.086c.048.048.126.01.116-.057a2.369 2.369 0 0 0-.406-1.116c-.01-.01.01-.029.02-.019l1.189 1.183c.067.067.183.01.174-.077a3.318 3.318 0 0 0-.639-1.702c-.01-.01.01-.029.02-.02l1.808 1.799c.097.096.261.019.252-.125a4.986 4.986 0 0 0-1.451-3.067Zm-7.098 0A5.04 5.04 0 0 1 11.546 11c.135-.01.212.154.116.25l-1.809 1.798c-.01.01 0 .03.02.02a3.498 3.498 0 0 1 1.72-.645c.098-.01.146.106.078.173l-1.238 1.231c-.01.01 0 .029.02.02a2.4 2.4 0 0 1 1.122-.404c.067-.01.106.076.058.115l-2.099 2.096a.068.068 0 0 1-.116-.058 2.37 2.37 0 0 1 .406-1.115c.01-.01-.01-.029-.02-.02l-1.189 1.183c-.067.067-.183.01-.174-.077a3.42 3.42 0 0 1 .648-1.711c.01-.01-.01-.029-.02-.02l-1.817 1.799c-.097.096-.261.019-.252-.125a4.986 4.986 0 0 1 1.451-3.067Zm0 7.114A5.04 5.04 0 0 0 11.546 21c.135.01.212-.154.116-.25l-1.809-1.798c-.01-.01 0-.03.02-.02a3.497 3.497 0 0 0 1.72.645c.098.01.146-.106.078-.174l-1.238-1.23c-.01-.01 0-.029.02-.02a2.4 2.4 0 0 0 1.122.405c.067.01.106-.077.058-.116l-2.099-2.096a.068.068 0 0 0-.116.058c.039.394.174.779.406 1.115.01.01-.01.029-.02.02l-1.189-1.183c-.067-.068-.183-.01-.174.077.058.605.271 1.201.648 1.711.01.01-.01.029-.02.02l-1.817-1.799c-.097-.096-.261-.019-.252.125a4.986 4.986 0 0 0 1.451 3.067Zm7.098 0A5.04 5.04 0 0 1 12.454 21c-.135.01-.212-.154-.116-.25l1.809-1.798c.01-.01 0-.03-.02-.02a3.497 3.497 0 0 1-1.72.645c-.098.01-.146-.106-.078-.174l1.238-1.23c.01-.01 0-.029-.02-.02a2.4 2.4 0 0 1-1.122.405c-.067.01-.106-.077-.058-.116l2.099-2.086a.068.068 0 0 1 .116.057 2.369 2.369 0 0 1-.406 1.116c-.01.01.01.029.02.019l1.189-1.183c.067-.067.183-.01.174.077a3.382 3.382 0 0 1-.639 1.712c-.01.01.01.029.02.019l1.808-1.798c.097-.096.261-.02.252.125a4.986 4.986 0 0 1-1.451 3.057Z"/></svg>
